school/img/country/NP.svg

<svg width="13" height="12" viewBox="0 0 13 12" fill="none" xmlns="http://www.w3.org/2000/svg">
<rect x="0.25" y="0.25" width="12.5" height="11.5" rx="1.75" fill="white" stroke="#F5F5F5" stroke-width="0.5"/>
<path fill-rule="evenodd" clip-rule="evenodd" d="M0 1.10172C0 0.493255 0.493256 -5.4175e-10 1.10172 2.20558e-10V2.20558e-10C1.1897 3.30788e-10 1.27476 0.0315879 1.34142 0.0890155L5.94656 4.05652C6.88312 4.86341 6.31249 6.4 5.07628 6.4H3.71429L6.70639 9.78338C7.46747 10.644 6.85646 12 5.7076 12H2C0.89543 12 0 11.1046 0 10V1.10172Z" fill="white"/>
<mask id="mask0" mask-type="alpha" maskUnits="userSpaceOnUse" x="0" y="0" width="8" height="12">
<path fill-rule="evenodd" clip-rule="evenodd" d="M0 1.10172C0 0.493255 0.493256 -5.4175e-10 1.10172 2.20558e-10V2.20558e-10C1.1897 3.30788e-10 1.27476 0.0315879 1.34142 0.0890155L5.94656 4.05652C6.88312 4.86341 6.31249 6.4 5.07628 6.4H3.71429L6.70639 9.78338C7.46747 10.644 6.85646 12 5.7076 12H2C0.89543 12 0 11.1046 0 10V1.10172Z" fill="white"/>
</mask>
<g mask="url(#mask0)">
<path d="M5.7076 11.3333H0.666667V0.666667H0.990521L5.51142 4.56159C5.9797 4.96504 5.69438 5.73333 5.07628 5.73333H3.71429C3.45206 5.73333 3.2142 5.88705 3.10647 6.12612C2.99875 6.3652 3.04118 6.64521 3.21489 6.84164L6.20699 10.225C6.58754 10.6553 6.28203 11.3333 5.7076 11.3333Z" fill="#EE1B44" stroke="#0543A8" stroke-width="1.33333" stroke-linejoin="round"/>
<path fill-rule="evenodd" clip-rule="evenodd" d="M3.1808 4.68048C3.35914 4.61732 3.52355 4.53093 3.66896 4.42569C3.52474 5.10273 3.04489 5.60004 2.47516 5.60004C1.90545 5.60004 1.42561 5.10276 1.28137 4.42576C1.42718 4.53127 1.59208 4.61783 1.77097 4.68103L2.01183 4.40001L1.61823 3.94079L2.14782 3.97574L2.12077 3.29135L2.47612 3.80001L2.83147 3.29135L2.80442 3.97574L3.33401 3.94079L2.9404 4.40001L3.1808 4.68048ZM2.00233 10.2782L2.47613 9.60004L2.94993 10.2782L2.91386 9.36572L3.61998 9.41233L3.09517 8.80004L3.61998 8.18774L2.91386 8.23435L2.94993 7.32183L2.47613 8.00004L2.00233 7.32183L2.03839 8.23435L1.33228 8.18774L1.85708 8.80004L1.33228 9.41233L2.03839 9.36572L2.00233 10.2782Z" fill="white"/>
</g>
</svg>

<svg width="13" height="12" fill="none" xmlns="http://www.w3.org/2000/svg"><rect x=".25" y=".25" width="12.5" height="11.5" rx="1.75" fill="#fff" stroke="#F5F5F5" stroke-width=".5"/><path fill-rule="evenodd" clip-rule="evenodd" d="M0 1.102C0 .493.493 0 1.102 0a.37.37 0 01.24.089l4.605 3.968c.936.806.365 2.343-.87 2.343H3.713l2.992 3.383c.761.861.15 2.217-.998 2.217H2a2 2 0 01-2-2V1.102z" fill="#fff"/><mask id="a" maskUnits="userSpaceOnUse" x="0" y="0" width="8" height="12"><path fill-rule="evenodd" clip-rule="evenodd" d="M0 1.102C0 .493.493 0 1.102 0a.37.37 0 01.24.089l4.605 3.968c.936.806.365 2.343-.87 2.343H3.713l2.992 3.383c.761.861.15 2.217-.998 2.217H2a2 2 0 01-2-2V1.102z" fill="#fff"/></mask><g mask="url(#a)"><path d="M5.708 11.333H.667V.667H.99l4.52 3.895a.667.667 0 01-.435 1.171H3.714a.667.667 0 00-.5 1.109l2.993 3.383a.667.667 0 01-.5 1.108z" fill="#EE1B44" stroke="#0543A8" stroke-width="1.333" stroke-linejoin="round"/><path fill-rule="evenodd" clip-rule="evenodd" d="M3.18 4.68c.18-.063.344-.15.489-.254-.144.677-.624 1.174-1.194 1.174s-1.05-.497-1.194-1.174c.146.105.311.192.49.255l.24-.281-.393-.46.53.036-.027-.685.355.509.355-.509-.027.685.53-.035-.394.459.24.28zm-1.178 5.598l.474-.678.474.678-.036-.912.706.046-.525-.612.525-.612-.706.046.036-.912L2.476 8l-.474-.678.036.912-.706-.046.525.612-.525.612.706-.046-.036.912z" fill="#fff"/></g></svg>
